X: 35919
T: Sandy's New Chanter
R: hornpipe
M: 4/4
K: Gmajor
|:B2AB BDGB|c2Bc EccE|BDGB Bdcd|ADFA AdcA|
B2AB BDGB|c2Bc EccE|BDGB ADFA|G4 G4:|
|:d2Bd GBBD|c2Bc EccE|BDGB Bdcd|ADFA AdcA|
d2Bd GBBD|c2Bc EccE|BDGB ADFA|G4 G4:|
|:BD D2 DBBD|cE E2 Ecdc|BD D2 Gdcd|ADFA AdcA|
BD D2 DBBD|cE E2 Ecdc|BDGB ADFA|G4 G4:|
|:d2 d2 BcdB|cEEc EGcA|BD D2 Gdcd|ADFA AdcA|
d2d2 BcdB|cEEc EGcA|BDGB ADFA|G4 G4:|
|:BDDB DDBD|cEEc EEcE|BDDB DDBD|ADBD cDdc|
BDDB DDBD|cEEc EEcE|BDGB ADFA|G4 G4:|

